packages/web-icons/svgs/arrow_3_down.svg

<svg viewBox="0 0 49 47" xmlns="http://www.w3.org/2000/svg" class="ridi_icon"><path d="M48.9 22.4c0 1.1-.4 2-1.1 2.8l-20.1 20c-.8.8-1.7 1.1-2.8 1.1-1.1 0-2-.4-2.8-1.1L2 25.1c-.8-.7-1.2-1.7-1.2-2.8 0-1.1.4-2 1.2-2.8l2.3-2.3c.8-.7 1.7-1.1 2.8-1.1 1.1 0 2 .4 2.8 1.1l9.1 9.1V4.6c0-1.1.4-2 1.2-2.8C21 1 21.9.6 23 .6h3.9c1.1 0 2 .4 2.8 1.2.8.8 1.2 1.7 1.2 2.8v21.7l9.1-9.1c.8-.8 1.7-1.1 2.8-1.1 1.1 0 2 .4 2.8 1.1l2.3 2.3c.6.9 1 1.8 1 2.9z"/></svg>

<?xml version="1.0" encoding="UTF-8"?>
<svg width="49px" height="47px" viewBox="0 0 49 47" version="1.1" xmlns="http://www.w3.org/2000/svg">
  <!-- Generator: Sketch 41.2 (35397) - http://www.bohemiancoding.com/sketch -->
  <title>arrow_3_down</title>
  <desc>Created with Sketch.</desc>
  <defs></defs>
  <g id="Page-1" stroke="none" stroke-width="1" fill="none" fill-rule="evenodd">
    <g id="arrow_3_down" fill="#000000">
      <g id="레이어_1">
        <path d="M48.9,22.4 C48.9,23.5 48.5,24.4 47.8,25.2 L27.7,45.2 C26.9,46 26,46.3 24.9,46.3 C23.8,46.3 22.9,45.9 22.1,45.2 L2,25.1 C1.2,24.4 0.8,23.4 0.8,22.3 C0.8,21.2 1.2,20.3 2,19.5 L4.3,17.2 C5.1,16.5 6,16.1 7.1,16.1 C8.2,16.1 9.1,16.5 9.9,17.2 L19,26.3 L19,4.6 C19,3.5 19.4,2.6 20.2,1.8 C21,1 21.9,0.6 23,0.6 L26.9,0.6 C28,0.6 28.9,1 29.7,1.8 C30.5,2.6 30.9,3.5 30.9,4.6 L30.9,26.3 L40,17.2 C40.8,16.4 41.7,16.1 42.8,16.1 C43.9,16.1 44.8,16.5 45.6,17.2 L47.9,19.5 C48.5,20.4 48.9,21.3 48.9,22.4 Z" id="Shape"></path>
      </g>
    </g>
  </g>
</svg>
